X: 24825
T: Maggie Pickins
R: strathspey
M: 4/4
K: Amajor
|:A>FE>F A>B c2|A>ce>c B>A F2|A>FE>F A>B c2|A>c e>c B2 A2:|
f>ga>e f>e c2|A>ce>c B>A F2|1 f>ga>e f>e a2|A>ce>c B2 A2:|
[2 A>FE>F A>B c2|A>ce>c B2 A2||

